X: 1
T: Gruncharsko Horo
M: 9/8
L: 1/8
R: slip jig
K: Emin
|:DE EDB, E2E2|EF G2D G2G2|GA B2A GFE2|GFD ^CB, E2E2:|
|:GA B2A GFE2|GFD ^CB,^CD EF|GF A2F G2G2|F2D ^CB, E2E2:|
|:{d}e2 e2d e2e2|e2 e2d dcB2|d2 edc B2FA|{c}d2c BA B2B2:|
|:A2 ABc d2cB|cBA BG A2GF|EEE FGA2 GF|GFE FD E2E2:|
